X:1
T:Christ Is Ready to Welcome
T:Christ Is Ready to Welcome
T:Samuel William Beazley
T:B. A. Strong, 1917
T:Public Domain Courtesy of the Cyber Hymnal™
T:Public Domain Courtesy of the Cyber Hymnal™
C:Samuel William Beazley
Z:Public Domain
Z:Courtesy of the Cyber Hymnal™
%%score ( 1 2 ) ( 3 4 )
L:1/8
Q:1/4=95
M:4/4
K:Bb
V:1 treble 
V:2 treble 
V:3 bass 
V:4 bass 
V:1
 [Fd][Ec] | [DB]2 [DF]>[DF] [EG][DF][DB][Fd] | [Gc]2 [EG]2 [EG]2 [EG][EB] | %3
w: 1.~Christ is|rea- dy to wel- come ev- ery|need- y heart, Ev- ery|
w: 2.~Not a-|lone to the wealth- y did the|Mas- ter speak, Not a-|
w: 3.~Come to-|day with your trou- bles, come with|all your sin, On His|
 [EA]2 [EA][EA] [Fe]2 [EA][EG] | [DF]6 [Fd][Ec] | [DB]2 [DF]>[DF] [EG][DF][DB][Fd] | %6
w: sin- ner for- giv- en may|be; Peace and|com- fort and glad- ness He will|
w: lone to the poor who were|nigh; But to|all who had wan- dered and were|
w: love cast your grief and your|care; He is|wait- ing to make you white as|
 [Gc]2 [EG]2 [EG]2 [EG][EB] | [EA]2 [EA][EA] [Fe]2 [Fd][Ec] | [DB]6 ||"^Refrain" [DF][DF] | %10
w: now im- part Un- to|all who will an- swer His|plea.||
w: lost and weak, Did His|sweet “who- so- ev- er” ap-|ply.|When He|
w: snow with- in, Wait- ing|now all your bur- dens to|bear.||
 [Fd]2 [Fd]>[Fd] [Fd][DF][DF][DB] | [EB][EA][EA][EG] [EA]FAc | (z2 G)A x6 | (z2 [DF])[DF] x6 | %14
w: ||||
w: said “Who- so- ev- er,” He in-|clud- ed you and me, And I am|* glad,|* I|
w: ||||
 [Fd]2 [Fd]>[Fd] [Fd][DF][DF][FB] | [GB][FA][EG][GB] !fermata![Ge]edc | (z2 [Fc])[Fc] x6 | B6 x2 |] %18
w: ||||
w: am glad; When He said “Who- so-|ev- er,” He meant all who would be|* free,|And|
w: ||||
V:2
 x2 | x8 | x8 | x8 | x8 | x8 | x8 | x8 | x6 || x2 | x8 | x8 | (e6 F2 F2) | (F6 D2 D2) | x8 | x8 | %16
 (d6 F2 F2) | (F2 G2 F2) x2 |] %18
V:3
 [B,,B,][B,,B,] | [B,,B,]2 [B,,B,]>[B,,B,] [B,,B,][B,,B,][B,,B,][B,,B,] | %2
w: ~ ~|~ ~ ~ ~ ~ ~ ~|
 [E,B,]2 [E,B,]2 [E,B,]2 [E,B,][E,G,] | F,2 [F,C][F,C] [F,A,]2 [F,C][F,A,] | %4
w: ~ ~ ~ ~ ~|~ ~ ~ ~ ~ ~|
 [B,,B,]6 [B,,B,][B,,B,] | [B,,B,]2 [B,,B,]>[B,,B,] [B,,B,][B,,B,][B,,B,][B,,B,] | %6
w: ~ ~ ~|~ ~ ~ ~ ~ ~ ~|
 [E,B,]2 [E,B,]2 [E,B,]2 [E,B,][E,G,] | F,2 [F,C][F,C] [F,A,]2 [F,A,][F,A,] | [B,,B,]6 || %9
w: ~ ~ ~ ~ ~|~ ~ ~ ~ ~ ~|~|
 [B,,B,][B,,B,] | [B,,B,]2 [B,,B,]>[B,,B,] [B,,B,][B,,B,][B,,B,][B,,B,] | %11
w: ~ ~|~ ~ ~ ~ ~ ~ ~|
 [F,C][F,C][F,C][F,C] [F,C] z3 | z2 [F,A,]2 [F,A,]2 z2 x2 | %13
w: ~ ~ ~ ~ ~|so glad,|
 z2 [B,,B,]2 [B,,B,]2 [B,,B,][B,,B,] x2 | [B,,B,]2 [B,,B,]>[B,,B,] [B,,B,][B,,B,][B,,B,][D,B,] | %15
w: so glad; ~ ~|~ ~ ~ ~ ~ ~ ~|
 [E,B,][E,B,][E,B,][E,B,] [E,B,] z3 | z2 [F,B,]2 [F,B,]2 [F,E][F,E] x2 | D2 D2 x4 |] %18
w: ~ ~ ~ ~ ~|so glad, ~ ~|~ so|
V:4
 x2 | x8 | x8 | F,2 x6 | x8 | x8 | x8 | F,2 x6 | x6 || x2 | x8 | x8 | x10 | x10 | x8 | x8 | x10 | %17
 B,,6 E2 |] %18

